X: 1049
T: Aly's Soond
R: reel
M: 4/4
K: Dmajor
FE|DFAB AFAB|defd efdB|AFAB defd|gefd e2FE|
DFAB AFAB|defd efge|afed edBA|Bddc d2:|
|:fe|dB B/B/B FBBc|dBcA B2fe|dB B/B/B FBBA|EAA^G A2fe|
dB B/B/B FBBc|dcde fefg|afed edBA|Bddc d2:|

